X: 2
I: linebreak $
T: Armyn
T: for three
C: Richard Schweitzer, CC BY-NC-SA 3.0
P: AA BBB CCC DDD E FFF G
N: Permission granted to copy within the SCA.
K: C major
M: 6/8
L: 1/8
P: A
"^Drone: F/C"C2C E2F | G2G G3 | A2c B2A | G6 :: 
P: B (3x)
A3 G3 | F3 E2"^        (3)"G :: 
P: C (3x)
G2G G2G | G2A G2F | E3 "^        (3)"C3 :: 
P: D
A3 G3 | F3 E2A | G2G G2A | 
G6 :| 
P: E
A3 G3 | F3 E3 | EFG ED2 | C6 |: 
P: F (3x)
D3 E3 | 
F3 "^         (3)"D3 :| C2
P: G
C E2F | G2G G2E | EFG ED2 | C6 |] 

